X:1
T:Will Ye Gang, Love
M:3/4
L:1/8
K:D
 A,| DC D2 DC| B,3/2 A,/2 A,4| DC D3 A| GF E3 E| FG A3 F| E3/2 D/2 G3 F|\
 FF E2 E3/2 D/2| B,3/2 A,/2 A,2 z2| DC D2 E3/2 D/2| B,3/2 A,/2 A,2 z2|\
 DC D2 A3/2 G/2| G3/2 F/2 E3 E| FG A3 F| ED G3 F| FE E2 E3/2 D/2| B,2 A,A, A,2|\
 z4 z||
